X:292
M:C|
L:1/8
K:A
cAAe A/A/A ec|dfec BcdB|cAAe A/A/A ec|dfec B2(Ae|
cAAe A/A/A ec|dfce BcdB|Aaga faec|dfec B2A2|]

